-----BEGIN PGP PUBLIC KEY BLOCK-----

mQINBGGbfsABEAC+01IxYaykEHIBW4dom/YipkmjPGbkU/oDibqsHE8VgDLC10Xt
Glto0H9q1fsTIi1nZ9S4lWUuuEAFgcPBt82qnT3E11ZCDC5khjFvPb7d0iK5Wg5T
a1hHNLxuqvRn4sOCyMp7LZJkgLFavvGnXWsHOmB3TzQRaQouc+Y21hqANXFCZXCD
be3Wbdy86ZHOezoWEdHaU1868ZlCPMq10lpBFcLzvdeEfMDAYhOE43c5X0tSbxNo
//kingPLPQ7nxbgsGDKNIsghazmKyMaJA+qpzMmu8qo1ioPZfW8GcYC06cBBAklQ
2dQmGqNvpdJeItBeis9kfJvfkWYCbQ5+ebmm/uJDGCXosIf3/OliMykJhiJzILp5
1AJqCBD6muL5aP7UorGtVrCQeW2DKB6vtw73qoWmIAmMdW80Nr2lkFu8sDM8VeCI
YUULVa2mkuAet8B3TEtFs6dRZZZNlw6fNny6gmN1dbh+aDebilkHn7eOm8A3qUO3
PgYNP8swIuGBDQ37lEKZaN6glL7+h0TY9Pz0UsBlCOOh0f3jrjVR2eseQfMtm5TU
/cqY7/+eTzycRpHRHl+xiSiUT1XwyzCf0sAEuMX6d1Um0KFXWWHYdpe4/P4yQmLw
Ex3JaYQHM7EBbLsj9vK7J9qAnrtH0kdyz1RBVE1SV0APS7qNec2GBUXh5QARAQAB
tDpDbGlja0hvdXNlIEluYy4gUmVwb3NpdG9yaWVzIEtleSA8cGFja2FnZXNAY2xp
Y2tob3VzZS5jb20+iQJOBBMBCAA4FiEEOp6hGTqXtUi+FFfUiRn2vStI11QFAmGb
fsACGwMFCwkIBwIGFQoJCAsCBBYCAwECHgECF4AACgkQiRn2vStI11R0OA/9GHe5
Gfco4zWrPSX1cCM1sZZeLZUXeRu4iJlJPahi1sjP2J0rcuv5Xp7paW23el0ksXf4
P+xknzzp8SlCndQKFWsb404vsNK5VtPB1RJ0Sje0dFM2nO1/Kt8pVX+r1WFJ1gur
BSugsAs3erTCy/ZIB6nhRcFBGsJfvZV24bVxFQKUW6ARigia3bqOZlM4ksdvjrLL
HZ84WiLY++W3wTMIh34KzLClVokl4au8L9Z1g+24EqJMRV7722FVm3GZDdVhmzNy
gKXQvopFvrfQY8Uk9ApZOVSsx9zH65UDP0u13ki7UTlyCi9ucGgT4w6cek1DUcXN
W0FU8498J80fADcWG4bsPjiJ7WiKI29saVked4gfUqx0G5kUCP+l5oo+okm/BFrt
66sO0cEbG9KZCmgdTa2KoNUtsampIBXDG0+9c2SWp3pa1j5sErngR2dyV6L8Muxx
dQJbVR4RxXkM8LkAUMN+YAatknMKEPa7gXalt73fiuvFXpY7NOxeUmlrRXucnCY8
vSnTNPcuQYAeNyg7z2gyrpqp81Kd+XKUIdKYuydPpvRHzhFOBIf68NUc3MR1UeZx
eBF+bnVkkyL5nRhU+1eLZ0YyW2/PBCmegUahCHEWLpXGzeNBwdnt3HrJEQg54Fu8
VPcKFa15kJ8QghTlMwYSQkXUPZeBOYaHtva+aSqJATMEEAEIAB0WIQSdgk/zlCIK
KzIjZgsAGciEq/hW0AUCYeaqyAAKCRAAGciEq/hW0CKVB/42Pla8EDBNTrki3CsV
hycpjrEDKnsxQgkN+DowtZPgRdYRaiQcIgk/xEgsud0RdMV16LYiHhj7YLvuTFay
H/QLhppatmQcEzyCZEvodklP8qX8fwls8QX9dOBDjfzfReV0ESrAs8SFcmFlLarb
/9LBX9izD0ouQqxdkkRnGS68SOu8WCwxffrJjI9qqdAsx5KWqqjuoRWkDIAQXOqX
sPynaqFFG6Pqhj99MT/+p+TxUhcPtqysII/2TdXm5yE0cnkX5xcog9bLi6Lp5G0+
2hv/sLxrtdrobtuZMNetfyb/g7zclTWbAzGAxPm/Y5kFqgqUgztsZRV4n80SOcM6
G4OouQINBGGbfsABEADXZ0mAMCsf7Y2yJ2aSBLCVPUEZESeB+kDAciksAguHeMVp
7owI2mfAfw4Z8TEQE6aOb+cqbDbqneQ6nuaRxMNvlDhhtrKztt+UxWrvgPMvJ59/
O1ujY7+VZ+3lXJ01r0u5Xdk1zUZ1uYYl8+Lt3/WmJmmlosX22EwQdsAvuRuOmuM2
jPTMVN81TaZ2R0Om5vT2L8/SQY7csxc5OylBLskuDQmU1PNlkwTltCMqHl7g08LP
ADLGi/3C9I/0P92A+jZ9RgDCI8BIOS5Ny7CStT96dqrje6TLbWRxIWBjn1xsVUTx
YQY4FXYfw1p7Rm5kzZGImzI4Z7wNcVHCty+X9La+7yKwABW2BeTqP0rCXpKmy4nN
OgwTDVRaA5CL8mg2doK8HOoa03SgziPGEeHHFyS7I2DJAEw+h9K8jXVy9Tgd7ZSX
mO4Z99ovdHksX4fmD7iOWU2WRp3b2yhpO8b/TgU2r9AQaNMAOsudN+0Q9NGkEYhW
RdWsGapJpa3Q+v1s88lodPhjcIkqGUCH82T/+MhTDdotssj8a6ueg3mcwVD38690
j8ngoBCPmLCNtgZDqhtfy+905uO3ksonF/X2lFc/YG7sqBiOHoDKyN347pPyK8Kb
ukiMoOasDIQUsryBUeAM0M0Xzftc66BaPgH75KTPZqkOO8aTBCRxl/AHTejV5wAR
AQABiQI2BBgBCAAgFiEEOp6hGTqXtUi+FFfUiRn2vStI11QFAmGbfsACGwwACgkQ
iRn2vStI11RimQ//a0dHoSekuMLDPEYpQYEEr5JYYWFdFPA/ixeMHZ566ankWMqK
HynhbqqRXVhqKd0pveV+ALhgrUU1nBB9Ma5P51VNEGC0rThiLBVkCTrV0UrUXxxg
A5cTJBVZe7yyysqdCHcuuNNrlQbuzhkJWBySgeWrbmd4VUbDdL0iGMFSAtbrYjSW
reBDBgWBYd8uRiPHtc6ACBIhzGGOulw0k4NnMXHDJyCwEv7EAxESY/V8kLK3p7DX
c6tpmd1vZ38X52CnVRM6aLQl6YWKXhA+vp9cPJehfEbK+ZPErbCB4jF6AC4BFwnt
E0YSod6TVM+wJBuPplnWr4nUUhsk/FeulWGF+AhUG2XJiIn90ZHIcxlct8Nt1zBg
oquxWYmqt/z+s7TOBXnvotOMJggjgsPozFlHjoy47Xc14VwzxnU+NknXYqDAsTfj
gXiw7NRQdJ8BUd4TSf8iINf2uCNzp4QDJ37VfN7/BiaXBGjEEN+kOKpxkse6qm06
GFd+bXGSHh6H7z2d973k2QIfW03opWAwS+AdH8xmUUaAyyhEql5mlXZVkQRS8rEO
4IV5HQV8FD5iV9bdNihaydlKP09/D9ZDlie0dJZXOIHQDuwDt4Ab3reSs1T5utCl
QE0FS8ZZjPuitq/l+TsT83TASVynvEmwvNiEbpOsNjvB1u++w4niqCHQv3a5Ag0E
Yyw+bgEQAOECkzewc6GdlGA65PIqEPL4JORnsYr0fHNHYGJ+WCHC9HuQEcFJ8Q0R
7nSNbMmi6KjnTqM4QdkLmyEQs9TKK5brFBa/ObbL4JVyBJTi4LdlCg95YfEQKTCl
b7roaLwKH+TykBJ617R+QUvFp65YCwzNiS2aKu6AC6zsD2rsrJulq5LIDKvWwLWf
FtwRwOHMgviuGlj/97omXUhuPIScJ5rB+QzICaiKriF/qVVO7obTV0OcUYrTOkNK
o8H/q/fw0FSvX3eznz6fK46gi468P34VO5ZLZs4UQih7EzDqdGz4Lo8GnIrtThWH
5rLyFhm7PdB6yLwf8bQeqDviI73Zb0w9ookYJQpBdglnDyLdhVjoAA0Hp3Q5XL6y
vZVZz06YL3k1VWHI2H/AWeceTFlrExmF2u1KousrwD8/583T042oRcGW97YV5Q9U
w7iffKvJiLp5VBZa319FsvF9hxM8bZVgVqBksBI/ScIvzMgG5FHeGflJ2xEIWWv2
uDiAs498kmm5wI6HdcfsYuTT+uPsKSNd5G+Ts/39+hirXhVygtx6pFeCRVTdrfWc
OfVIVilZm7I+qDNrap2w6dT23zJT1DvZFCXymU9dxPEoLOm7cn9oxkvjs6c/YOIe
yU5CSdI5ZdO99G/8TbFwLKdSTajkRTVfIa99j/8P0jPMetnk7PoHABEBAAGJBGwE
GAEIACAWIQQ6nqEZOpe1SL4UV9SJGfa9K0jXVAUCYyw+bgIbAgJACRCJGfa9K0jX
VMF0IAQZAQgAHRYhBIheK9z5awtFq/BYRT5K1HGd3po4BQJjLD5uAAoJED5K1HGd
3po4CjIQALM1EjN2zCtQip9m5IuPnHA6d/YFIuNAXjAnZcg6HQSi+ERFu1w3mL2y
a+ll3EYOhFMVMEnja0h0e+ezt+WMJt1R2eH1PMZEeJ2uMXgIOl0QsTUXWemhweTQ
EmsgqksQMqsvFuogxNP/Co+cKJCiBpMIU9FJfLrSoGGidnUqr48QjGRVx69FPPth
lNOj6/KkhksmJFTT7YhMG8V7K8yxiYIcQQvRfINLZfmXF2cvGlZU21Il43nCmNb4
iFUnrUOouQ7k/Oe/OzZqggmcfPGp+6GoSJB3exr3NonjuEhmYR1VPe+WcgsWSl5R
WVEaasN5C7dcekqWsqlAUHpvIqDfzaL3s4HBp19uxxdiy42wXotDhT02P7DJVjVJ
f9XWgQbmaanzLdPnrUxwUYcLEQM17VJ37j9DyW9zPBB/pKLRwDr89xpmAKMtRzeX
ImnBuUJHctp/c9dFvbhJGgxFgLHhBCUdTsEs7phLAB32n+oP2Mas6yRgG98k46ic
+ZNdJIzplfXT96n/5u+aeyQOkY3rZh6Jbhzwpb+r5Tj1rAXIJta6prkd8d3+1Rg3
7x9HkEAHn3ZPDk1RwbVOVCU0UjMOPU/6Y3FsQq30jSuNhr70p5H/okwpkS7YX/7l
Y0068XEpWoIyJQIHcBM0HZCV904mwdqfRDujziIoQ/xEm3+zIVtzdgYP/3kX4kUu
p2DEUEY5ND3oKc5CAjyFUGU7thzILHtt76WrrwXqqfxjJKl9+acmLlrBLj5FQwFE
hThEeWunm2T5hhgr4FfF4MXneQqVRhUslm5+sRIm/K1ye5q4NLfgiwZD/nTM5def
yI4cynrby4fy1R9SCBLolzvPLpvEraegxIQ3Hk1kT5HmnXi79hZVbZxIkt6wNPG1
rTS0TaJ2M37nmhm4GcNjDtKnhy4Aq569DO8Sd0U6bYKIaFFoi7X5KYnKWY37pYFl
0ERU0ffQp7Mg9ruHRvHhkA41iQ5kF/O1fJHRUfXcYnfIfvN1C77TdXLQryrA/bRN
S2dlulIu4CYH+lsfhlIjBQrRoEOWGu6PzKBwPIXKcVFfB4BcG5si/3vZD3Q1xfUj
3MV2sQcgVNbd/t7jJda3uhX9DiEPyqdgl382Rq+LoPV4az1igDLDUe7yPrCpD1rw
JMyKJyStiP4i1jiIejVavPiCpXH1oxCQeR8KqjdrdNbSVgDOapPauZEcwJL464Zl
WkdxKX09sN6GaXFTHYTEXkxrzhlYZaysWEO86+iBUcHnRtc1D3dMJg7hi/Du1Iou
TwnBsYIwd9Fz/wHpDkiu0Z3gCmYEg4JQj4iwAtNOQfhJzhEH4kHLom8j8XI/TlgJ
e/vtNUUUDp3i8qczTjuaVywRbE3+9xjjsSiI
=c48w
-----END PGP PUBLIC KEY BLOCK-----
